app/assets/images/payment_icons/shopify_pay.svg

<svg xmlns="http://www.w3.org/2000/svg" width="38" height="24" viewBox="0 0 38 24" fill="none" aria-labelledby="pi-shopify_pay" role="img"><title id="pi-shopify_pay">Shop Pay</title><rect width="38" height="24" fill="#5A31F4"/><g clip-path="url(#pi-shopify_pay-clip0_4071_512)"><path d="M9.8585 11.3981C8.89399 11.186 8.4643 11.103 8.4643 10.7263C8.4643 10.372 8.75508 10.1955 9.33665 10.1955C9.84812 10.1955 10.222 10.422 10.4972 10.8659C10.518 10.9002 10.5608 10.912 10.5958 10.8936L11.6811 10.3377C11.72 10.318 11.7343 10.2679 11.7122 10.2297C11.2618 9.4381 10.4297 9.00475 9.33405 9.00475C7.89442 9.00475 7 9.72392 7 10.8672C7 12.0817 8.08914 12.3886 9.05495 12.6006C10.0208 12.8127 10.4518 12.8957 10.4518 13.2724C10.4518 13.6491 10.1376 13.8269 9.5106 13.8269C8.93163 13.8269 8.50195 13.5582 8.24232 13.0366C8.22285 12.9984 8.17741 12.9826 8.13977 13.0024L7.05712 13.5464C7.01947 13.5661 7.00389 13.6122 7.02337 13.6517C7.45305 14.5277 8.33449 15.0203 9.5119 15.0203C11.0113 15.0203 11.9174 14.313 11.9174 13.1341C11.9174 11.9552 10.823 11.6128 9.8585 11.4007V11.3981Z" fill="white"/><path d="M15.6742 9.00474C15.0588 9.00474 14.5149 9.22603 14.1242 9.61986C14.0995 9.64357 14.0593 9.62645 14.0593 9.5922V7.07771C14.0593 7.03425 14.0255 7 13.9827 7H12.6248C12.582 7 12.5482 7.03425 12.5482 7.07771V14.882C12.5482 14.9254 12.582 14.9597 12.6248 14.9597H13.9827C14.0255 14.9597 14.0593 14.9254 14.0593 14.882V11.4586C14.0593 10.7974 14.5591 10.2903 15.2328 10.2903C15.9065 10.2903 16.3946 10.7869 16.3946 11.4586V14.882C16.3946 14.9254 16.4284 14.9597 16.4712 14.9597H17.8291C17.8719 14.9597 17.9057 14.9254 17.9057 14.882V11.4586C17.9057 10.0203 16.9762 9.00474 15.6742 9.00474Z" fill="white"/><path d="M20.6603 8.78082C19.923 8.78082 19.2324 9.01001 18.7365 9.34062C18.7027 9.36301 18.6911 9.40912 18.7118 9.44468L19.3103 10.4813C19.3323 10.5182 19.3791 10.5313 19.4154 10.509C19.7919 10.2785 20.2229 10.1586 20.6629 10.1612C21.8481 10.1612 22.7192 11.0095 22.7192 12.1304C22.7192 13.0854 22.0221 13.7927 21.1381 13.7927C20.4176 13.7927 19.9178 13.3672 19.9178 12.7666C19.9178 12.4228 20.0619 12.1409 20.4371 11.942C20.476 11.921 20.4903 11.8722 20.4669 11.834L19.9022 10.8646C19.8841 10.833 19.8451 10.8185 19.8101 10.8317C19.0532 11.1162 18.5223 11.8011 18.5223 12.7205C18.5223 14.1114 19.614 15.1494 21.1368 15.1494C22.9152 15.1494 24.1939 13.8994 24.1939 12.1067C24.1939 10.1849 22.7062 8.78082 20.6603 8.78082Z" fill="white"/><path d="M28.1662 8.99289C27.4794 8.99289 26.8654 9.25106 26.4176 9.70416C26.3929 9.72919 26.3527 9.71075 26.3527 9.6765V9.13119C26.3527 9.08773 26.3189 9.05348 26.2761 9.05348H24.9533C24.9104 9.05348 24.8767 9.08773 24.8767 9.13119V16.9236C24.8767 16.9671 24.9104 17.0013 24.9533 17.0013H26.3111C26.354 17.0013 26.3877 16.9671 26.3877 16.9236V14.3683C26.3877 14.334 26.428 14.3169 26.4526 14.3393C26.8992 14.7608 27.4898 15.0071 28.1662 15.0071C29.759 15.0071 31.0013 13.6992 31.0013 12C31.0013 10.3008 29.7577 8.99289 28.1662 8.99289ZM27.9091 13.6873C27.003 13.6873 26.3163 12.9563 26.3163 11.9895C26.3163 11.0227 27.0017 10.2916 27.9091 10.2916C28.8165 10.2916 29.5007 11.0108 29.5007 11.9895C29.5007 12.9681 28.8256 13.6873 27.9078 13.6873H27.9091Z" fill="white"/></g><defs><clipPath id="pi-shopify_pay-clip0_4071_512"><rect width="24" height="10" fill="white" transform="translate(7 7)"/></clipPath></defs></svg>

<svg xmlns="http://www.w3.org/2000/svg" width="38" height="24" fill="none" aria-labelledby="pi-shopify_pay" role="img" viewBox="0 0 38 24"><title id="pi-shopify_pay">Shop Pay</title><path fill="#5A31F4" d="M0 0h38v24H0z"/><g fill="#fff" clip-path="url(#pi-shopify_pay-clip0_4071_512)"><path d="M9.859 11.398c-.965-.212-1.395-.295-1.395-.672q0-.53.873-.53c.511 0 .885.226 1.16.67.021.034.064.046.099.028l1.085-.556a.08.08 0 0 0 .031-.108c-.45-.792-1.282-1.225-2.378-1.225-1.44 0-2.334.719-2.334 1.862 0 1.215 1.09 1.522 2.055 1.734s1.397.295 1.397.671-.314.555-.941.555c-.58 0-1.009-.269-1.269-.79a.075.075 0 0 0-.102-.035l-1.083.544a.08.08 0 0 0-.034.106c.43.876 1.311 1.368 2.489 1.368 1.5 0 2.405-.707 2.405-1.886s-1.094-1.521-2.059-1.733zM15.674 9.005c-.615 0-1.16.221-1.55.615a.038.038 0 0 1-.065-.028V7.078A.077.077 0 0 0 13.983 7h-1.358a.077.077 0 0 0-.077.078v7.804c0 .043.034.078.077.078h1.358a.077.077 0 0 0 .076-.078v-3.423c0-.662.5-1.169 1.174-1.169s1.162.497 1.162 1.169v3.423c0 .043.033.078.076.078h1.358a.077.077 0 0 0 .077-.078v-3.423c0-1.439-.93-2.454-2.232-2.454M20.66 8.78a3.54 3.54 0 0 0-1.924.56.08.08 0 0 0-.024.105l.598 1.036c.022.037.07.05.105.028a2.36 2.36 0 0 1 1.248-.348c1.185 0 2.056.848 2.056 1.97 0 .954-.697 1.662-1.58 1.662-.721 0-1.221-.426-1.221-1.026 0-.344.144-.626.52-.825a.077.077 0 0 0 .029-.108l-.565-.97a.076.076 0 0 0-.092-.032c-.757.284-1.288.97-1.288 1.888 0 1.391 1.092 2.43 2.615 2.43 1.778 0 3.057-1.25 3.057-3.043 0-1.922-1.488-3.326-3.534-3.326M28.166 8.993c-.687 0-1.3.258-1.748.711-.025.025-.065.007-.065-.027V9.13a.077.077 0 0 0-.077-.078h-1.323a.076.076 0 0 0-.076.078v7.793c0 .043.033.077.076.077h1.358a.076.076 0 0 0 .077-.077v-2.556c0-.034.04-.051.065-.029a2.46 2.46 0 0 0 1.713.668c1.593 0 2.835-1.308 2.835-3.007s-1.243-3.007-2.835-3.007m-.257 4.694c-.906 0-1.593-.73-1.593-1.697s.686-1.698 1.593-1.698c.908 0 1.592.719 1.592 1.697 0 .98-.675 1.698-1.593 1.698z"/></g><defs><clipPath id="pi-shopify_pay-clip0_4071_512"><path fill="#fff" d="M7 7h24v10H7z"/></clipPath></defs></svg>
